X:11
T:Hornpipe
T:Beef Steak
S:John Moore's Book 3
Z:Transcribed by Steve Mansfield 05/2021
%%VWML: Moore1-4495-p8-0
F:https://www.vwml.org/record/Moore3/4495/p8
M:C
L:1/8
K:Bb
F2 | B2B2 B>dc>e | e2d2 d2ze | f>ba>g f>ed>c | B>cd>B c>AF>D | 
B2B2 B>dc>e | e2d2 d2ze | f>bg>e d>Bc>A | B2B2B2 :|
|: FE | DBFB DBFB | EBGB EBGB | ecAc ecAc | dBGB dBGB | 
DBFB DBFB | EBGB EBGB | ecAc ecBA | B2B2 B2 :|

